X:1
T:Title
%%score { ( 1 2 ) | ( 3 4 ) }
L:1/8
Q:1/4=100
M:4/4
K:G
V:1 treble nm="Grand Piano"
V:2 treble 
V:3 bass 
V:4 bass 
V:1
 z4 z2 .[DB]2 | [DGB]2 [DFA]2 [B,G]4 | [DFA]2 BG z G,AG | [DF]2 [^CE]2 [F,D]4 | %4
 [G,DG]2 .[CEG]2 .[B,DB]2 [G,E][DF] | D-[DA]BG z2 F,2 | z4 [Gd]4 | [GB]2 [FA]2 [B,DG]4 |] %8
V:2
 [B,DG]2 [A,D]2 [B,EG][DFA]G-[EGc] | x8 | z4 E2 z2 | x8 | x8 | .[B,G]2 z2 A4 | %6
 Bdce z z/ C/ D[EAc] | x8 |] %8
V:3
 G,2 F,2 E,D,G,C, | D,2 D,2 G,,4 | D,2 [G,B,D]2 [A,^C]2 [F,A,D][G,B,E] | A,4 z4 | %4
 B,,2 z A z G z A, | z A, [E,G,^C]2 [D,D]4 | DB, [A,CF]2 B,>A,[K:bass] B,C | D4 z4 |] %8
V:4
 x8 | x8 | x8 | z2 A,,2 D,4 | z2 C,2 G,,2 C,2 | B,,2 z2 G,2 z2 | G,2 z2 z4[K:bass] | z2 D,2 G,4 |] %8

